X: 17470
T: Highway To Kilkenny
R: slip jig
M: 9/8
K: Gmajor
G2g gfg dBG|A2B c2d ecA|G2g gfg dBG|A/B/cA BGE E2B|
G2g gfg dBG|A2B c2d e2f|g2g gfg dBG|A/B/cA BGE E2B|
|:e2f g2e fdB|e2f g2a bge|faf gbe dBG|A/B/cA BGE E2B:|

